svg/battery_plus.svg

<svg xmlns="http://www.w3.org/2000/svg" viewBox="0 0 24 24"><path d="M16.67 4C17.4 4 18 4.6 18 5.33v15.34A1.33 1.33 0 0 1 16.67 22H7.33C6.6 22 6 21.4 6 20.67V5.33A1.33 1.33 0 0 1 7.33 4H9V2h6v2zM16 14v-2h-3V9h-2v3H8v2h3v3h2v-3z"/></svg>

<?xml version="1.0" encoding="UTF-8"?><!DOCTYPE svg PUBLIC "-//W3C//DTD SVG 1.1//EN" "http://www.w3.org/Graphics/SVG/1.1/DTD/svg11.dtd"><svg xmlns="http://www.w3.org/2000/svg" xmlns:xlink="http://www.w3.org/1999/xlink" version="1.1" id="mdi-battery-plus" width="24" height="24" viewBox="0 0 24 24"><path d="M16.67,4C17.4,4 18,4.6 18,5.33V20.67A1.33,1.33 0 0,1 16.67,22H7.33C6.6,22 6,21.4 6,20.67V5.33A1.33,1.33 0 0,1 7.33,4H9V2H15V4H16.67M16,14V12H13V9H11V12H8V14H11V17H13V14H16Z" /></svg>
